X:1
T:St. Patrick's Day. Ru1.001
B:Rutherford's Country Dances Vol 1, 1756
Z:village music project, Steve Mansfield July 2015
Z:Transcription by Village Music Project, Steve Mansfield July 2015
F:http://www.village-music-project.org.uk/
Z:village music project, Steve Mansfield July 2015
M:6/8
L:1/8
W:Cast off one Cu. and turn .| Cast up again & turn :|
W:Cross over two Cu. .|. Lead up to the Top Foot it &
W:Cast off :|
Q:3/8=90
K:G
|:GAG GAB | ded dBG | BAB BGE | EFE E2D |
GAG GAB | ded dBG | BAB BGE | E3 G3 :|
|: def g2e | f2d e2^c | def g2e | f2d e3 |
def g2e | f2d efg | def g2e | f2d e3 |
dBG GAB | ded dBG | BAB BGE | EFE E2D |
GAG GAB | ded dBG | BAB BGE | E3 G3 :|
